X:88
T:Merry Thought. THO5.088
M:C|
L:1/8
B:Thompson's Complete Collection of 200 Favourite Dances Vol.5
F:https://www.libraryofdance.org/manuals/1780c-Thompson-Compleat-5.pdf
Z:vmp. Peter Dunk 2024
Q:1/4=140
K:A
e|cAEA FAGA|BABc dcBA|cAEA FAGA|BABc A3:|
|:e|agfe ac'ea|dcBA AGFE|agfe ac'ea|BABc A3:|
W:
W:The 1st Couple foot it to the 2nd Lady, hands three round ./.
W:foot it to the 2nd Gent, hands four round ./:
W:Lead down two Couples, 2nd & 3rd Couples follows :/.
W:Cross over and turn :/:

